Numix-GalliumOS/16/mimetypes/application-torrent.svg

<?xml version="1.0" encoding="UTF-8" standalone="no"?>
<svg
   xmlns:dc="http://purl.org/dc/elements/1.1/"
   xmlns:cc="http://creativecommons.org/ns#"
   xmlns:rdf="http://www.w3.org/1999/02/22-rdf-syntax-ns#"
   xmlns:svg="http://www.w3.org/2000/svg"
   xmlns="http://www.w3.org/2000/svg"
   xmlns:sodipodi="http://sodipodi.sourceforge.net/DTD/sodipodi-0.dtd"
   xmlns:inkscape="http://www.inkscape.org/namespaces/inkscape"
   width="16"
   height="16"
   viewBox="0 0 16 16"
   id="svg2"
   version="1.1"
   inkscape:version="0.48.5 r10040"
   sodipodi:docname="application-torrent.svg">
  <metadata
     id="metadata16">
    <rdf:RDF>
      <cc:Work
         rdf:about="">
        <dc:format>image/svg+xml</dc:format>
        <dc:type
           rdf:resource="http://purl.org/dc/dcmitype/StillImage" />
      </cc:Work>
    </rdf:RDF>
  </metadata>
  <defs
     id="defs14" />
  <sodipodi:namedview
     pagecolor="#ffffff"
     bordercolor="#666666"
     borderopacity="1"
     objecttolerance="10"
     gridtolerance="10"
     guidetolerance="10"
     inkscape:pageopacity="0"
     inkscape:pageshadow="2"
     inkscape:window-width="1280"
     inkscape:window-height="970"
     id="namedview12"
     showgrid="true"
     inkscape:zoom="29.5"
     inkscape:cx="-0.22488964"
     inkscape:cy="5.8044169"
     inkscape:window-x="0"
     inkscape:window-y="0"
     inkscape:window-maximized="1"
     inkscape:current-layer="svg2">
    <inkscape:grid
       type="xygrid"
       id="grid3004" />
  </sodipodi:namedview>
  <path
     style="fill:#00853d;fill-opacity:1"
     d="M 2.667969,-4.462e-4 C 2.324219,-4.462e-4 2,0.3378118 2,0.6964465 L 2,15.303108 C 2,15.641365 2.34375,16 2.667969,16 l 10.664062,0 C 13.65625,16 14,15.641365 14,15.303108 L 14,3.9995536 9.9999997,-4.462e-4 z"
     id="path4-9"
     inkscape:connector-curvature="0"
     sodipodi:nodetypes="ssssssccs" />
  <path
     style="fill:#ffffff"
     d="m 9.9109626,12.466217 -1.4738349,0 c -0.4530873,0 -0.8905506,0.01036 -1.3175974,-0.155406 C 6.770601,12.176128 6.4425032,11.96892 6.182109,11.699549 5.3175976,10.803379 5.2082321,9.3788274 5.9842083,8.3894119 6.4633347,7.7833306 7.197649,7.3999962 7.9736253,7.3999962 c 0.2135233,0 0.6561942,-0.03626 0.7499369,0.2123886 C 8.7652254,7.7418891 8.671483,7.8869342 8.536078,7.907655 8.4162961,7.9335556 8.270475,7.8662135 8.1454855,7.8662135 7.770517,7.8610337 7.4372117,7.9128348 7.0934899,8.0682411 5.8279721,8.6380606 5.5102894,10.482207 6.5466611,11.41982 6.8122642,11.658108 7.1195303,11.844595 7.4684584,11.937838 7.7809335,12.015538 8.0986147,12 8.4162961,12 l 1.9165049,0 c 0.07812,0 0.197901,0.02072 0.270812,-0.0052 0.05728,-0.02072 0.109365,-0.08289 0.151028,-0.124325 0.104158,-0.103589 0.260395,-0.217554 0.317683,-0.357418 l -2.4008413,0 c -0.2916423,0 -0.5989071,0.0259 -0.8853417,-0.01554 C 7.4476281,11.4509 7.1455695,11.295495 6.8955904,11.062388 6.7653934,10.943242 6.6612354,10.793017 6.5831167,10.632432 6.1039903,9.6844586 6.7185213,8.5499979 7.7601005,8.3686911 c 0.1770691,-0.031082 0.3749686,-0.025901 0.5520376,0.01036 0.1770692,0.036261 0.3958001,0.098423 0.5364137,0.2175684 0.09895,0.088064 0.1093654,0.2279282 0.026039,0.3263519 -0.130197,0.1398655 -0.2551864,0.056983 -0.3905924,-0.00518 -0.1093655,-0.046621 -0.2239399,-0.082882 -0.3385129,-0.093242 -0.499958,-0.062162 -0.984292,0.217567 -1.1821927,0.6786044 -0.2447715,0.5801809 0.067703,1.2795049 0.6666107,1.4815319 0.2864345,0.103604 0.6145324,0.06216 0.9165896,0.06216 l 2.5102069,0 c 0.09895,0 0.265603,0.03108 0.354136,-0.0052 0.03646,-0.01555 0.05208,-0.06734 0.07291,-0.09842 l 0.151027,-0.290079 C 11.811844,10.249099 11.931626,9.8398635 11.978496,9.3995482 12.171188,7.5709433 11.05149,5.8304014 9.3172618,5.2191388 7.9580012,4.737382 6.3800084,5.0689138 5.3175976,6.0272476 4.8228485,6.4727429 4.4635027,7.0322041 4.2343553,7.6538263 c -0.3124737,0.8236483 -0.3124737,1.8389645 0,2.6626137 0.072911,0.186486 0.145821,0.378153 0.249979,0.554281 0.026039,0.04144 0.057287,0.150225 0.1093655,0.170945 0.1197819,0.04145 0.020833,-0.212387 0.010416,-0.248649 -0.078118,-0.31081 -0.1041575,-0.621622 -0.1041575,-0.9427924 0,-1.37275 0.9322137,-2.626354 2.1768999,-3.1495523 0.3749685,-0.1554062 0.8072242,-0.2538301 1.2134407,-0.2538301 0.057287,0 0.1249895,-0.01036 0.1770678,0.010361 0.1301984,0.041441 0.2083159,0.1916664 0.1458211,0.315991 C 8.1246539,6.9389601 7.9527937,6.8975186 7.7965561,6.9130596 7.4632508,6.94414 7.1403619,7.011482 6.8278881,7.1409877 5.9373376,7.513961 5.2394802,8.3220698 5.0363719,9.2700438 4.7499373,10.61171 5.3957164,12.02072 6.6404039,12.642343 c 0.5259971,0.25901 1.1040739,0.341892 1.6821507,0.300452 0.4062152,-0.0259 0.8124305,-0.124326 1.1926078,-0.27455 0.1197806,-0.04662 0.3124738,-0.103605 0.3958002,-0.202028 z"
     id="path10"
     inkscape:connector-curvature="0" />
  <path
     style="fill:#000000;fill-opacity:0.19599998"
     d="m 10.583223,3.3315846 0.0154,0.01953 0.04005,-0.01953 z m 0.02978,0.667969 3.387,3.664062 0,-3.664062 z"
     id="path6"
     inkscape:connector-curvature="0"
     sodipodi:nodetypes="cccccccc" />
  <path
     style="fill:#ffffff;fill-opacity:0.39200003"
     d="m 9.9999997,-4.462e-4 3.9963963,3.9999998 -3.383784,0 c -0.299099,0 -0.6126123,-0.317117 -0.6126123,-0.616216 z"
     id="path8"
     inkscape:connector-curvature="0"
     sodipodi:nodetypes="ccssc" />
</svg>

<svg xmlns="http://www.w3.org/2000/svg" viewBox="0 0 16 16">
 <path d="m 2.668 0 c -0.344 0 -0.668 0.338 -0.668 0.697 l 0 14.607 c 0 0.338 0.344 0.697 0.668 0.697 l 10.664 0 c 0.324 0 0.668 -0.359 0.668 -0.697 l 0 -11.304 -4 -4 z" style="fill:#00853d;fill-opacity:1"/>
 <path d="m 9.911 12.466 -1.474 0 c -0.453 0 -0.891 0.01 -1.318 -0.155 c -0.349 -0.135 -0.677 -0.342 -0.937 -0.611 -0.865 -0.896 -0.974 -2.321 -0.198 -3.31 0.479 -0.606 1.213 -0.989 1.989 -0.989 c 0.214 0 0.656 -0.036 0.75 0.212 c 0.042 0.13 -0.052 0.275 -0.187 0.295 -0.12 0.026 -0.266 -0.041 -0.391 -0.041 -0.375 -0.005 -0.708 0.047 -1.052 0.202 -1.266 0.57 -1.583 2.414 -0.547 3.352 0.266 0.238 0.573 0.425 0.922 0.518 0.312 0.078 0.63 0.062 0.948 0.062 l 1.917 0 c 0.078 0 0.198 0.021 0.271 -0.005 0.057 -0.021 0.109 -0.083 0.151 -0.124 0.104 -0.104 0.26 -0.218 0.318 -0.357 l -2.401 0 c -0.292 0 -0.599 0.026 -0.885 -0.016 c -0.339 -0.047 -0.641 -0.202 -0.891 -0.435 -0.13 -0.119 -0.234 -0.269 -0.312 -0.43 -0.479 -0.948 0.135 -2.082 1.177 -2.264 c 0.177 -0.031 0.375 -0.026 0.552 0.01 0.177 0.036 0.396 0.098 0.536 0.218 0.099 0.088 0.109 0.228 0.026 0.326 -0.13 0.14 -0.255 0.057 -0.391 -0.005 -0.109 -0.047 -0.224 -0.083 -0.339 -0.093 -0.5 -0.062 -0.984 0.218 -1.182 0.679 -0.245 0.58 0.068 1.28 0.667 1.482 0.286 0.104 0.615 0.062 0.917 0.062 l 2.51 0 c 0.099 0 0.266 0.031 0.354 -0.005 0.036 -0.016 0.052 -0.067 0.073 -0.098 l 0.151 -0.29 c 0.177 -0.404 0.297 -0.813 0.344 -1.254 0.193 -1.829 -0.927 -3.569 -2.661 -4.18 -1.359 -0.482 -2.937 -0.15 -4 0.808 -0.495 0.445 -0.854 1 -1.083 1.627 c -0.312 0.824 -0.312 1.839 0 2.663 0.073 0.186 0.146 0.378 0.25 0.554 0.026 0.041 0.057 0.15 0.109 0.171 0.12 0.041 0.021 -0.212 0.01 -0.249 -0.078 -0.311 -0.104 -0.622 -0.104 -0.943 0 -1.373 0.932 -2.626 2.177 -3.15 0.375 -0.155 0.807 -0.254 1.213 -0.254 0.057 0 0.125 -0.01 0.177 0.01 0.13 0.041 0.208 0.192 0.146 0.316 c -0.089 0.166 -0.26 0.124 -0.417 0.14 -0.333 0.031 -0.656 0.098 -0.969 0.228 -0.891 0.373 -1.588 1.181 -1.792 2.129 -0.286 1.342 0.359 2.751 1.604 3.372 c 0.526 0.259 1.104 0.342 1.682 0.3 0.406 -0.026 0.812 -0.124 1.193 -0.275 0.12 -0.047 0.312 -0.104 0.396 -0.202 z" style="fill:#fff"/>
 <path d="m 10.583 3.332 0.015 0.02 0.04 -0.02 z m 0.03 0.668 3.387 3.664 0 -3.664 z" style="fill:#000;fill-opacity:0.196"/>
 <path d="m 10 0 3.996 4 -3.384 0 c -0.299 0 -0.613 -0.317 -0.613 -0.616 z" style="fill:#fff;fill-opacity:0.392"/>
</svg>
